frontend/public/svg/hand gestures/wave-right.svg

<svg width="119" height="152" viewBox="0 0 119 152" fill="none" xmlns="http://www.w3.org/2000/svg">
<g clip-path="url(#clip0)">
<path d="M108.494 60.2909C108.404 60.2343 108.321 60.1656 108.249 60.0868C108.196 60.0363 108.137 59.9805 108.069 59.9194C108.2 59.6175 108.339 59.3123 108.48 59.0005C108.92 58.1045 109.285 57.1737 109.573 56.2177C109.735 55.6191 109.909 55.0205 110.084 54.42C110.81 52.2357 111.284 49.9758 111.498 47.684C111.582 46.4204 111.392 45.1537 110.943 43.9696C110.495 42.7855 109.796 41.7116 108.897 40.8207C107.912 39.8761 106.739 39.1507 105.454 38.6921C104.169 38.2335 102.801 38.0522 101.441 38.1599C100.942 38.1933 100.444 38.2438 99.8969 38.2989L99.49 38.3397L99.7006 36.6482C99.9087 34.9766 100.104 33.4106 100.296 31.8439C100.755 28.0969 99.3075 25.7899 98.0119 24.5139C96.9256 23.5144 95.6287 22.7714 94.2176 22.3397C92.8058 21.908 91.3153 21.7987 89.8556 22.0199C87.1436 22.3946 84.5865 23.5504 81.8102 25.6585C81.23 26.0989 80.6649 26.5775 80.0105 27.1308L79.4474 27.6073C79.4474 27.2738 79.452 26.9581 79.4552 26.6569C79.4651 25.654 79.473 24.7876 79.4362 23.9278C79.2249 19.1202 76.5483 16.4351 71.6914 16.164C70.3492 16.0288 68.9939 16.1968 67.7252 16.6557C66.4565 17.1145 65.3072 17.8524 64.362 18.8149C62.7001 20.5299 61.1554 22.4051 59.6615 24.2179C59.1831 24.7981 58.705 25.3783 58.2219 25.9546C49.2688 36.6463 41.63 48.5326 34.2416 60.0185L32.7392 62.3544C32.3099 63.0219 31.8597 63.6763 31.4133 64.3267C31.2624 64.5473 31.1108 64.7665 30.9612 64.9831L30.9342 64.968C30.9093 64.9535 30.8869 64.9417 30.8685 64.9306C30.7694 64.647 30.6781 64.3608 30.5862 64.074C30.4819 63.7458 30.3771 63.421 30.2635 63.0974C27.6231 55.6211 22.9124 50.2522 16.2657 47.1405C14.7592 46.3816 13.0818 46.0262 11.3969 46.1092C9.71219 46.1921 8.07759 46.7105 6.65295 47.6137C5.20095 48.5946 4.02357 49.9304 3.23281 51.4941C2.44206 53.0577 2.0643 54.7976 2.13486 56.5485C2.23112 58.3478 2.52107 60.1316 2.99983 61.8687L3.16263 62.5618C4.67221 69.0412 5.10853 74.0478 4.5769 78.7977C4.18966 82.2553 3.70936 85.764 3.24467 89.156C2.7964 92.4311 2.33221 95.8172 1.95219 99.1579C1.4366 103.401 1.14751 107.668 1.08594 111.942C1.10949 114.334 1.52415 116.706 2.31336 118.965C7.46365 134.293 17.5299 144.548 32.2325 149.445C36.2524 150.816 40.4676 151.528 44.7148 151.553C48.9858 151.552 53.2213 150.777 57.216 149.265C63.9111 146.738 69.9758 142.784 74.9889 137.678C81.5575 131.049 88.4917 123.916 94.7007 116.024C100.049 109.227 106.705 100.768 111.412 91.5608C113.987 86.6855 116.064 81.5635 117.612 76.2721C119.691 68.803 116.199 62.6774 108.494 60.2909ZM10.7753 59.9345C10.3184 58.4568 10.0216 56.9344 9.88947 55.3933C9.82384 54.0806 10.1408 53.0915 10.8083 52.527C11.5073 51.9363 12.6041 51.7913 13.9765 52.0985C15.9973 52.5994 17.8165 53.7063 19.1904 55.2706C23.4618 59.7908 25.2634 63.8686 25.0317 68.482C24.897 69.8702 24.5944 71.236 24.1305 72.5513C24.0235 72.8998 23.9172 73.247 23.8168 73.5936C23.3849 75.0828 23.1711 76.7578 24.8605 77.8893C26.2973 78.8515 27.9124 78.6644 29.2934 77.376C30.1887 76.4966 30.9815 75.518 31.6563 74.4593C34.1779 70.7076 36.6897 66.9488 39.1917 63.1827C44.317 55.4898 49.6168 47.535 54.962 39.8046C57.9457 35.4899 61.3332 31.3379 64.6103 27.3257C65.3257 26.4505 66.0394 25.5737 66.7518 24.6951C67.693 23.5071 68.8862 22.5431 70.2455 21.8728C71.4105 21.3392 72.4397 21.3202 73.1472 21.817C73.8547 22.3139 74.1757 23.2754 74.0706 24.5349C73.9624 26.6235 73.4865 28.6767 72.6654 30.6002C70.7148 34.7507 68.5522 38.7985 66.1868 42.7273C62.6649 48.5635 58.9951 54.4456 55.4476 60.134C53.7691 62.8237 52.0943 65.5146 50.4228 68.207C50.1084 68.7045 49.8551 69.2374 49.6681 69.7953C49.4002 70.4484 49.3858 71.1782 49.628 71.8418C49.8702 72.5047 50.3517 73.0541 50.9775 73.3809C51.2694 73.5818 51.5995 73.7209 51.9473 73.7885C52.2951 73.8568 52.653 73.8522 52.9991 73.776C53.3452 73.6999 53.6719 73.5535 53.959 73.3455C54.246 73.1374 54.4868 72.8729 54.6672 72.5677C55.1043 71.9455 55.5534 71.3299 56.0023 70.7149C57.1109 69.2545 58.1371 67.7338 59.076 66.1592C64.0642 57.4102 70.365 49.3845 75.9228 42.3033C78.0231 39.6294 80.3938 36.7375 83.388 33.2025C85.1431 31.0631 87.5079 29.5081 90.1673 28.744C91.5863 28.345 92.5347 28.3686 93.0624 28.8189C93.5901 29.2691 93.7647 30.2057 93.5934 31.6805C93.0178 36.6444 90.7974 41.0542 88.7024 44.7127C82.8439 54.945 75.7568 65.1051 66.3967 76.6889C65.9294 77.2677 65.4214 77.8361 64.9305 78.3855C64.242 79.1567 63.5293 79.9535 62.9051 80.8041C62.065 81.9474 61.7892 83.0586 62.1036 84.0201C62.4258 85.0047 63.3428 85.7535 64.7539 86.1926C66.9395 86.8733 68.8764 86.23 70.508 84.282L71.3232 83.3113C73.1964 81.0837 75.13 78.7826 76.8063 76.3456C80.8526 70.4536 84.849 64.3851 88.7142 58.5155L90.4397 55.8954C91.0751 54.9326 91.6526 53.9158 92.2118 52.9333C92.5879 52.2704 92.9646 51.6076 93.3598 50.9571C95.0492 48.2287 97.5905 46.1331 100.591 44.9943C102.155 44.3629 103.337 44.5014 104.313 45.4295C105.288 46.3575 105.199 47.4641 104.783 48.8647C103.27 54.1313 100.883 59.1067 97.7231 63.5838C94.4657 68.104 91.077 72.6458 87.7986 77.0387C85.6255 79.9515 83.4596 82.8696 81.3009 85.7923C80.3301 87.1135 79.4034 88.4964 78.5075 89.834C77.8059 90.8841 77.08 91.9664 76.3383 93.01C75.0716 94.7959 75.1116 96.545 76.4617 98.3592C77.246 99.4126 78.0894 99.9501 78.9696 99.9573H78.9886C79.473 99.9186 79.9409 99.767 80.3564 99.515C80.7719 99.2623 81.1223 98.9164 81.3796 98.5049C82.3569 97.2408 83.2784 95.9071 84.171 94.6174C84.7985 93.7097 85.4273 92.802 86.0744 91.9106C87.2558 90.2954 88.4313 88.6769 89.6009 87.0537C93.3013 81.9448 97.1278 76.6613 101.093 71.6298C102.228 70.1911 104.351 69.3247 106.225 68.5601L106.639 68.3908C106.92 68.268 107.226 68.2123 107.532 68.2293C107.839 68.2457 108.137 68.3343 108.402 68.4873C108.734 68.7006 109.012 68.988 109.216 69.3261C109.419 69.6641 109.542 70.0448 109.575 70.4379C109.918 73.0737 109.8 75.0565 109.215 76.5011C106.683 82.7514 104.132 88.3448 101.418 93.6001C97.7874 100.631 92.941 106.897 88.2456 112.62C86.9408 114.21 85.7679 115.944 84.6357 117.621C83.4359 119.464 82.1377 121.241 80.7476 122.945C77.5151 126.761 73.795 130.401 70.514 133.612C66.1566 137.809 60.9445 141.015 55.2338 143.011C49.5795 145.054 43.1918 144.974 36.2484 142.77C23.2181 138.635 14.1989 129.614 9.44047 115.96C8.92951 114.262 8.63318 112.508 8.55881 110.738C8.50302 110.055 8.44947 109.41 8.37005 108.83C8.49541 107.686 8.60541 106.619 8.71108 105.604C8.93096 103.475 9.12202 101.635 9.37602 99.7749C9.72782 97.2047 10.1053 94.6384 10.4827 92.0721C11.0596 88.1511 11.6556 84.0963 12.1466 80.0952C13.0121 73.3501 12.5461 66.5005 10.7753 59.9345Z" fill="black"/>
<path d="M52.5898 17.4437C52.3929 17.7351 52.1914 18.0252 51.9879 18.3153C51.2394 19.2947 50.6161 20.3636 50.1321 21.4973C49.9854 22.0242 49.9704 22.579 50.0885 23.113C50.2066 23.6471 50.454 24.1439 50.8092 24.5597C51.6277 25.2896 53.3643 25.0474 53.8749 24.9535C54.7068 24.7184 55.4462 24.2328 55.9923 23.5628C56.4706 23.018 56.952 22.4746 57.4364 21.9324C59.4513 19.6608 61.5338 17.3118 63.3761 14.8387C64.4007 13.4604 64.8097 12.2482 64.6285 11.1246C64.4395 9.95826 63.6041 8.87137 62.0689 7.80088C59.6188 6.08719 56.942 4.34128 53.8874 2.4635C53.6617 2.32435 53.428 2.14975 53.1898 1.97189C52.1495 1.19609 50.7274 0.134202 49.3937 1.89057C48.0449 3.66858 49.5248 4.88868 50.6019 5.77868C50.7587 5.90995 50.9123 6.03534 51.0541 6.16004C52.1351 7.11304 53.2856 8.00953 54.5018 8.95859C54.8146 9.20367 55.1351 9.45439 55.4628 9.71076C54.8918 9.70682 54.3409 9.70026 53.806 9.69435C52.1382 9.674 50.5646 9.65569 49.0229 9.73051C38.0994 10.2608 27.8887 13.9928 18.6836 20.8226C14.487 23.9522 11.0907 28.0307 8.77281 32.7247C8.58379 33.102 8.42706 33.4945 8.2761 33.8751C8.18093 34.1141 8.08563 34.353 7.98193 34.5887C7.79277 34.9403 7.67995 35.3278 7.65054 35.726C7.62114 36.1241 7.67594 36.524 7.81141 36.8996C7.92673 37.1331 8.09259 37.3379 8.2969 37.4994C8.50129 37.6608 8.73888 37.7747 8.99269 37.8329C9.10577 37.864 9.22247 37.8792 9.33976 37.8782C10.237 37.7372 11.0768 37.3473 11.7632 36.7526C12.1109 36.4495 12.3753 36.0624 12.5311 35.6283C12.628 35.3998 12.7444 35.1802 12.8795 34.972C13.2995 34.374 13.7007 33.7564 14.1018 33.1374C14.9797 31.6704 16.0116 30.3013 17.1799 29.0531C27.4798 18.8799 39.6626 14.29 54.4046 15.0297C54.215 15.2758 54.0393 15.4997 53.8759 15.7091C53.3639 16.3779 52.9547 16.8983 52.5898 17.4437Z" fill="black"/>
</g>
<defs>
<clipPath id="clip0">
<rect width="117.484" height="150.958" fill="white" transform="translate(0.814819 0.75708)"/>
</clipPath>
</defs>
</svg>

<svg xmlns="http://www.w3.org/2000/svg" width="119" height="152" fill="none" viewBox="0 0 119 152"><g fill="#000" clip-path="url(#a)"><path d="M108.494 60.29a1.2 1.2 0 0 1-.245-.203l-.18-.168q.198-.452.411-.918c.44-.896.805-1.827 1.093-2.783a95 95 0 0 1 .511-1.798 30.3 30.3 0 0 0 1.414-6.736 8.84 8.84 0 0 0-2.601-6.863 9.67 9.67 0 0 0-7.456-2.661c-.499.033-.997.084-1.544.139l-.407.04.21-1.69c.209-1.672.404-3.238.596-4.805.459-3.747-.989-6.054-2.284-7.33a9.87 9.87 0 0 0-8.156-2.494c-2.712.375-5.27 1.53-8.046 3.639-.58.44-1.145.919-1.8 1.472l-.563.476q.002-.499.008-.95c.01-1.003.018-1.87-.019-2.73-.211-4.807-2.888-7.492-7.745-7.763a9 9 0 0 0-7.329 2.65c-1.662 1.716-3.207 3.591-4.7 5.404q-.717.87-1.44 1.737c-8.953 10.691-16.592 22.578-23.98 34.064l-1.503 2.335c-.43.668-.88 1.322-1.326 1.973q-.226.331-.452.656l-.027-.015-.066-.037c-.099-.284-.19-.57-.282-.857q-.154-.492-.322-.977c-2.64-7.476-7.352-12.845-13.998-15.956a9.76 9.76 0 0 0-9.613.473 10.28 10.28 0 0 0-4.518 8.935c.096 1.799.386 3.583.865 5.32l.163.693c1.51 6.48 1.946 11.486 1.414 16.236-.387 3.457-.868 6.966-1.332 10.358-.449 3.275-.913 6.661-1.293 10.002-.515 4.243-.804 8.51-.866 12.784a22 22 0 0 0 1.227 7.023c5.15 15.328 15.217 25.583 29.92 30.48a39.4 39.4 0 0 0 12.482 2.108 35.3 35.3 0 0 0 12.501-2.288 49.3 49.3 0 0 0 17.773-11.587c6.569-6.629 13.503-13.762 19.712-21.654 5.348-6.797 12.004-15.256 16.711-24.463a82 82 0 0 0 6.2-15.289c2.079-7.469-1.413-13.595-9.118-15.981m-97.719-.355c-.457-1.478-.753-3-.886-4.542-.065-1.312.252-2.301.92-2.866.698-.59 1.795-.736 3.168-.428 2.02.5 3.84 1.607 5.213 3.172 4.272 4.52 6.073 8.598 5.842 13.211a17.2 17.2 0 0 1-.901 4.07q-.163.522-.314 1.042c-.432 1.489-.646 3.164 1.043 4.295 1.437.963 3.052.775 4.433-.513a16.6 16.6 0 0 0 2.363-2.917q3.783-5.627 7.536-11.276c5.125-7.693 10.425-15.648 15.77-23.378 2.984-4.315 6.371-8.467 9.648-12.48q1.074-1.311 2.142-2.63a10.2 10.2 0 0 1 3.494-2.822c1.165-.534 2.194-.553 2.901-.056.708.497 1.029 1.458.924 2.718a17.8 17.8 0 0 1-1.406 6.065 134 134 0 0 1-6.478 12.127c-3.522 5.837-7.192 11.719-10.74 17.407q-2.517 4.034-5.024 8.073a7.3 7.3 0 0 0-.755 1.588 2.833 2.833 0 0 0 1.31 3.586 2.58 2.58 0 0 0 2.021.395 2.58 2.58 0 0 0 1.668-1.208c.437-.623.886-1.238 1.335-1.853a49 49 0 0 0 3.074-4.556c4.988-8.749 11.289-16.775 16.847-23.856 2.1-2.674 4.47-5.565 7.465-9.1a13.64 13.64 0 0 1 6.78-4.459c1.418-.399 2.367-.375 2.894.075s.703 1.387.531 2.861c-.575 4.964-2.796 9.374-4.89 13.033-5.86 10.232-12.946 20.392-22.306 31.976-.468.579-.976 1.147-1.467 1.697-.688.77-1.4 1.568-2.025 2.418-.84 1.143-1.116 2.255-.801 3.216.322.985 1.239 1.734 2.65 2.173 2.185.68 4.122.037 5.754-1.911l.815-.97c1.873-2.228 3.807-4.53 5.483-6.966 4.047-5.892 8.043-11.96 11.908-17.83l1.726-2.62c.635-.963 1.213-1.98 1.772-2.963.376-.663.753-1.325 1.148-1.976a14.6 14.6 0 0 1 7.231-5.963c1.564-.631 2.746-.493 3.722.435.975.928.886 2.035.47 3.436a49 49 0 0 1-7.06 14.719c-3.257 4.52-6.646 9.062-9.924 13.455a2269 2269 0 0 0-6.498 8.753c-.97 1.322-1.898 2.704-2.794 4.042a134 134 0 0 1-2.169 3.176c-1.266 1.786-1.226 3.535.124 5.35.784 1.053 1.627 1.59 2.508 1.597h.019a3.12 3.12 0 0 0 2.39-1.452c.978-1.264 1.9-2.598 2.792-3.888.627-.907 1.256-1.815 1.903-2.706a843 843 0 0 0 3.527-4.857c3.7-5.11 7.527-10.393 11.492-15.424 1.135-1.439 3.258-2.305 5.132-3.07l.414-.17a1.96 1.96 0 0 1 1.763.097 2.58 2.58 0 0 1 1.173 1.95c.343 2.637.225 4.62-.36 6.064-2.532 6.25-5.083 11.844-7.797 17.1-3.63 7.03-8.477 13.296-13.172 19.019-1.305 1.59-2.478 3.324-3.61 5.001a62 62 0 0 1-3.888 5.324c-3.233 3.816-6.953 7.456-10.234 10.667a42 42 0 0 1-15.28 9.399c-5.654 2.043-12.042 1.963-18.986-.241-13.03-4.135-22.05-13.156-26.808-26.81a21.2 21.2 0 0 1-.881-5.222 36 36 0 0 0-.189-1.908c.125-1.144.235-2.211.341-3.226.22-2.129.411-3.969.665-5.83.352-2.57.73-5.136 1.107-7.702.577-3.92 1.173-7.976 1.664-11.977a52 52 0 0 0-1.372-20.16"/><path d="M52.59 17.444a61 61 0 0 1-.602.871 14.8 14.8 0 0 0-1.856 3.182 3.34 3.34 0 0 0 .677 3.063c.819.73 2.555.487 3.066.393a4.2 4.2 0 0 0 2.117-1.39q.718-.817 1.444-1.63c2.015-2.272 4.098-4.621 5.94-7.094 1.025-1.379 1.434-2.59 1.253-3.714-.19-1.167-1.025-2.254-2.56-3.324-2.45-1.714-5.127-3.46-8.182-5.337a10 10 0 0 1-.697-.492c-1.04-.776-2.463-1.838-3.796-.081-1.35 1.778.13 2.998 1.208 3.888q.237.195.452.381c1.081.953 2.232 1.85 3.448 2.799l.96.752q-.854-.006-1.656-.017c-1.668-.02-3.241-.038-4.783.037-10.924.53-21.134 4.262-30.34 11.092a33.2 33.2 0 0 0-9.91 11.902c-.19.377-.346.77-.497 1.15-.095.24-.19.478-.294.714a2.84 2.84 0 0 0-.17 2.31 1.76 1.76 0 0 0 1.18.934q.171.047.348.045a4.85 4.85 0 0 0 2.423-1.125c.348-.303.612-.69.768-1.125q.145-.343.348-.656c.42-.598.822-1.216 1.223-1.835a24 24 0 0 1 3.078-4.084C27.48 18.88 39.663 14.29 54.405 15.03c-.19.246-.366.47-.53.68-.511.668-.92 1.188-1.285 1.734"/></g><defs><clipPath id="a"><path fill="#fff" d="M.815.757h117.484v150.958H.815z"/></clipPath></defs></svg>
